src/assets/skills/lodash.svg

<svg height="100pt" viewBox="0 0 100 100" width="100pt" xmlns="http://www.w3.org/2000/svg"><path d="m20 23.013h5.593v37.118h22.118v4.576h-27.711zm45.152 10.068c-5.72-.077-11.441 3.559-13.22 9.076-2.543 6.356-1.373 14.339 3.61 19.195 4.83 4.016 12.101 4.322 17.542 1.474 3.737-1.983 6.102-5.924 6.61-10.068.661-4.322.331-9.05-1.78-12.965-2.491-4.17-7.372-6.865-12.203-6.687l-.559-.076zm.508 4.423c4.195 0 7.958 3.204 8.644 7.322 1.271 4.653.509 10.348-3.305 13.627-3.559 2.899-9.279 2.492-12.203-1.093-3.559-3.813-3.559-9.661-1.729-14.237 1.271-3.305 4.653-5.669 8.212-5.593h.458z"/><path d="m20 70.631h59.999v6.356h-59.999z" fill="#3492ff"/></svg>

<?xml version="1.0" encoding="UTF-8" standalone="no"?><!-- Generator: Gravit.io --><svg xmlns="http://www.w3.org/2000/svg" xmlns:xlink="http://www.w3.org/1999/xlink" style="isolation:isolate" viewBox="0 0 100 100" width="100pt" height="100pt"><g><path d=" M 20 23.013 L 25.593 23.013 L 25.593 60.131 L 47.711 60.131 L 47.711 64.707 L 20 64.707 L 20 23.013 Z  M 65.152 33.081 C 59.432 33.004 53.711 36.64 51.932 42.157 C 49.389 48.513 50.559 56.496 55.542 61.352 C 60.372 65.368 67.643 65.674 73.084 62.826 C 76.821 60.843 79.186 56.902 79.694 52.758 C 80.355 48.436 80.025 43.708 77.914 39.793 C 75.423 35.623 70.542 32.928 65.711 33.106 L 65.152 33.03 L 65.152 33.081 Z  M 65.66 37.504 C 69.855 37.504 73.618 40.708 74.304 44.826 C 75.575 49.479 74.813 55.174 70.999 58.453 C 67.44 61.352 61.72 60.945 58.796 57.36 C 55.237 53.547 55.237 47.699 57.067 43.123 C 58.338 39.818 61.72 37.454 65.279 37.53 L 65.737 37.53 L 65.66 37.504 Z " fill="rgb(0,0,0)"/><path d=" M 20 70.631 L 79.999 70.631 L 79.999 76.987 L 20 76.987 L 20 70.631 Z " fill="rgb(52,146,255)"/></g></svg>
